svg/transactions.svg

<svg width="32" height="32" viewBox="0 0 32 32" fill="none" xmlns="http://www.w3.org/2000/svg">
<path d="M16 4C9.37258 4 4 9.37258 4 16H6C6 10.4772 10.4772 6 16 6V4Z" fill="black"/>
<path d="M6.76682 19.8472C8.27408 23.4604 11.8405 26 16 26V28C11.0086 28 6.7289 24.9525 4.92019 20.6166L6.76682 19.8472Z" fill="black"/>
<path d="M16 28C22.6274 28 28 22.6274 28 16H26C26 21.5228 21.5228 26 16 26V28Z" fill="black"/>
<path d="M25.2332 12.1528C23.7259 8.5396 20.1595 6 16 6V4C20.9914 4 25.2711 7.04753 27.0798 11.3834L25.2332 12.1528Z" fill="black"/>
<path d="M26.5397 12.694C27.05 12.4827 27.2923 11.8977 27.0809 11.3875L25.2332 12.1528C25.4445 12.6631 26.0295 12.9054 26.5397 12.694Z" fill="black"/>
<path d="M4.29325 17.707C4.68325 18.097 5.31725 18.097 5.70725 17.707L8.70725 14.707C9.09825 14.316 9.09825 13.683 8.70725 13.292C8.31725 12.902 7.68325 12.902 7.29325 13.292L6.10547 14.585H4.07812L2.70725 13.292C2.31725 12.902 1.68325 12.902 1.29325 13.292C0.90225 13.683 0.90225 14.316 1.29325 14.707L4.29325 17.707Z" fill="black"/>
<path d="M26.2933 14.2925C26.6832 13.9025 27.3173 13.9025 27.7073 14.2925L30.7073 17.2925C31.0983 17.6835 31.0983 18.3165 30.7073 18.7075C30.3173 19.0975 29.6832 19.0975 29.2932 18.7075L28.1055 17.4145H26.0781L24.7072 18.7075C24.3172 19.0975 23.6832 19.0975 23.2932 18.7075C22.9022 18.3165 22.9022 17.6835 23.2932 17.2925L26.2933 14.2925Z" fill="black"/>
<path d="M5.46221 19.3128C4.95197 19.5241 4.70966 20.1091 4.92101 20.6193L6.76877 19.854C6.55742 19.3437 5.97245 19.1014 5.46221 19.3128Z" fill="black"/>
<path fill-rule="evenodd" clip-rule="evenodd" d="M16 7C15.448 7 15 7.448 15 8V10.019L17 10.015V8C17 7.448 16.552 7 16 7Z" fill="black"/>
<path fill-rule="evenodd" clip-rule="evenodd" d="M17 24V21.985H15V24C15 24.552 15.448 25 16 25C16.552 25 17 24.552 17 24Z" fill="black"/>
<path fill-rule="evenodd" clip-rule="evenodd" d="M21.909 12.004C22.016 12.546 21.551 12.999 20.999 12.999C20.447 13 20.057 12.507 19.749 12.049C19.347 11.451 19.25 11 16 11C12.75 11 12 11 12 13C12 15 12.606 15 16 15C21.143 15 22 15.8 22 19C22 21.95 20.725 22.86 17 22.985C16.369 23.006 15.631 23.006 15 22.985C12.128 22.889 10.441 22.2 10.076 19.997C9.985 19.452 10.448 19 11 19C11.552 19 11.925 19.463 12.075 19.995C12.283 20.731 13.065 21 16 21C20 21 20 20.5 20 19.002V18.998C20 17.5 20 17 16 17C10.857 17 10 16 10 13C10 10.234 11.275 9.168 15 9.019C15.631 8.993 16.369 8.994 17 9.015C20.006 9.015 21.537 10.111 21.909 12.004V12.004Z" fill="black"/>
</svg>

<svg width="32" height="32" fill="none" xmlns="http://www.w3.org/2000/svg"><path d="M16 4C9.373 4 4 9.373 4 16h2c0-5.523 4.477-10 10-10V4zM6.767 19.847A10.003 10.003 0 0 0 16 26v2c-4.991 0-9.271-3.047-11.08-7.383l1.847-.77zM16 28c6.627 0 12-5.373 12-12h-2c0 5.523-4.477 10-10 10v2zM25.233 12.153A10.003 10.003 0 0 0 16 6V4c4.991 0 9.271 3.048 11.08 7.383l-1.847.77z" fill="#000"/><path d="M26.54 12.694a1 1 0 0 0 .54-1.307l-1.847.766a1 1 0 0 0 1.307.541zM4.293 17.707a1 1 0 0 0 1.414 0l3-3a1 1 0 1 0-1.414-1.415l-1.188 1.293H4.078l-1.37-1.293a1 1 0 0 0-1.415 1.415l3 3zM26.293 14.293a1 1 0 0 1 1.414 0l3 3a1 1 0 1 1-1.414 1.415l-1.188-1.293h-2.027l-1.37 1.293a1 1 0 0 1-1.415-1.415l3-3zM5.462 19.313a1 1 0 0 0-.541 1.306l1.848-.765a1 1 0 0 0-1.307-.541z" fill="#000"/><path fill-rule="evenodd" clip-rule="evenodd" d="M16 7a1 1 0 0 0-1 1v2.019l2-.004V8a1 1 0 0 0-1-1zM17 24v-2.015h-2V24a1 1 0 0 0 2 0z" fill="#000"/><path fill-rule="evenodd" clip-rule="evenodd" d="M21.909 12.004c.107.542-.358.995-.91.995-.552.001-.942-.492-1.25-.95C19.347 11.451 19.25 11 16 11s-4 0-4 2 .606 2 4 2c5.143 0 6 .8 6 4 0 2.95-1.275 3.86-5 3.985-.631.021-1.369.021-2 0-2.872-.096-4.559-.785-4.924-2.988-.091-.545.372-.997.924-.997s.925.463 1.075.995c.208.736.99 1.005 3.925 1.005 4 0 4-.5 4-1.998v-.004C20 17.5 20 17 16 17c-5.143 0-6-1-6-4 0-2.766 1.275-3.832 5-3.981a28.378 28.378 0 0 1 2-.004c3.006 0 4.537 1.096 4.909 2.989z" fill="#000"/></svg>
